X:1
T:Crucifier
T:Crucifier
T:Sydney Hugo Nicholson
T:Philip R. McDavid
T:Frame of Light Designs
T:Frame of Light Designs
T:Frame of Light Designs
C:Sydney Hugo Nicholson
Z:Philip R. McDavid
Z:Frame of Light Designs
%%score 1 2 { ( 3 4 ) | ( 5 6 ) }
L:1/8
Q:1/4=100
M:4/4
K:C
V:1 treble transpose=-2 nm="B♭ Clarinet" snm="B♭ Cl."
V:2 bass nm="Euphonium" snm="Euph."
V:3 treble nm="Pipe Organ" snm="Org."
V:4 treble 
V:5 bass 
V:6 bass 
V:1
[K:D]|: D2 E2 F2 D2- | D2 C2 D2 E2 | D6 D2 | D2 C2 B,2 A,2 | A,2 C2 D2 E2 | F2 G2 A2 G2 | %6
 F2 ED D2 CB, | A,8 | (F2 E2) D3 D | E4 C4 | A,3 C C2 F2 | =F4 (^F2 E2) | (D2 F2) E4 | E4 C4 | %14
 D3 F E2 E2 | E8 :: z2 A,2 D3 D | E6 C2 | D3 E F2 ^G2 | A6 E2 | D2 G2 F4- | F2 G2 (A2 G2 | %22
 F2) (GF) E2 E2 | D8 |] A,4 B,3 B, | B,4 C4 | F3 ^E F2 F2 | ^E4 C4 | (D2 F2) E4 | E4 E4 | %30
 D3 F E2 E2 | E8 :| %32
V:2
|: E,2 F,2 G,4 | A,2 G,2 F,2 D,2 | G,3 F, E,2 D,2 | G,6 F,2 | E,2 F,2 G,2 A,2 | B,2 C2 D2 C2 | %6
 B,2 A,2 A,G, F,2 | F,2 D,2 E,4 | B,4 A,3 A, | A,4 G,2 ^F,2 | E,3 ^D, E,2 E,2 | ^F,4 G,4 | %12
 (A,2 G,2) ^F,4 | (G,2 A,2) (G,2 ^F,2) | E,3 C A,2 A,2 | B,8 :: (C2 D2 E4 | F6) (D2 | C8 | D8) | %20
 (C2 F2 G2 F2 | E2 F6) | (E2 DE F4- | F4 E4) |] (G,4 C4 | D8 | E3 ^D E4 | ^D4) (B,4 | C2 E2 (D4 | %29
 D8)) | (C4 (D4 | D8)) :| %32
V:3
|:"^Refrain (Unison)" G4 c3 G | F6 [DG]2 | E3 F G2 [CA]2 | D6 [G,D]2 | [G,E]2 [B,G]2 c4- | %5
w: Lift high the|cross, the|love of Christ pro-|claim till|all the world|
w: |||||
w: |||||
 [Ec]2 [FA]2 G4- | [EG]2 A2 FE D2 | [G,C]8 |"^Verse (parts)" G4 [C^F]3 [CE] | [D^F]4 D4 | %10
w: _ a- dore|_ his sa- * cred|name.|1~Come, Chris- tians,|fol- low|
w: |||2~All new- born|ser- vants|
w: |||3~O Lord, once|lif- ted|
 [G,E]3 [B,^F] [B,G]2 [EA]2 | [^DB]4 G4 | c4 (B2 A2) | [Dd]4 D4 | [CE]3 [EG] [DG]2 [D^F]2 | %15
w: where our Sav- ior|trod, our|King vic- *|to- rious,|Christ, the Son of|
w: of the Cru- ci-|fied bear|on their _|brows the|seal of Christ who|
w: on the glo- rious|tree, your|deth has _|brought us|life e- ter- nal-|
 [DG]8 ::"^Refrain (Unison)" G4 c3 G | F6 [DG]2 | E3 F G2 [CA]2 | D6 [G,D]2 | [G,E]2 [B,G]2 c4- | %21
w: God.|Lift high the|cross, the|love of Christ pro-|claim till|all the world|
w: died.||||||
w: ly.||||||
 [Ec]2 [FA]2 G4- | [EG]2 A2 FE D2 | [G,C]8 |]"^Verse (parts)" G4 [C^F]3 [CE] | [D^F]4 D4 | %26
w: _ a- dore|_ his sa- * cred|name.|4~So shall our|song of|
w: |||||
w: |||||
 [G,E]3 [B,^F] [B,G]2 [EA]2 | [^DB]4 G4 | c4 (B2 A2) | [Dd]4 D4 | [CE]3 [EG] [DG]2 [D^F]2 | %31
w: tri- umph e- ver|be: praise|to the _|Cru- ci-|fied for vic- to-|
w: |||||
w: |||||
 [DG]8 :| %32
w: ry!|
w: |
w: |
V:4
|: C2 D2 E2 C2- | C2 B,2 C2 x2 | C6 x2 | C2 B,2 A,2 x2 | x4 C2 D2 | x4 G2 F2 | x2 DC C2 B,A, | x8 | %8
 (E2 D2) x4 | x4 D4 | x8 | x4 (E2 =D2) | (C2 E2) D4 | x4 D4 | x8 | %15
 x2 [B,DF]2"^to Refrain" [F,A,D]2 [G,B,E]2 :: C2 D2 E2 C2- | C2 B,2 C2 x2 | C6 x2 | C2 B,2 A,2 x2 | %20
 x4 C2 D2 | x4 G2 F2 | x2 DC C2 B,A, | x8 |] (E2 D2) x4 | x4 D4 | x8 | x4 (E2 =D2) | (C2 E2) D4 | %29
 x4 D4 | x8 | x2 [B,DF]2"^to Refrain" [F,A,D]2 [G,B,E]2 :| %32
V:5
|: E,2 F,2 G,4 | [D,,A,]2 [G,,G,]2 [A,,F,]2 [B,,D,]2 | G,3 F, [G,,E,]2 [^F,,D,]2 | G,6 [B,,F,]2 | %4
 [C,E,]2 [D,F,]2 [E,G,]2 [F,A,]2 | [G,B,]2 [A,C]2 [B,D]2 [A,C]2 | [G,B,]2 A,2 A,G, [G,,F,]2 | %7
 F,2 D,2 E,4 | [E,B,]4 [A,,A,]3 [A,,A,] | A,4 (G,2 ^F,2) | [C,E,]3 [B,,^D,] E,2 [C,E,]2 | %11
 [B,,^F,]4 [E,G,]4 | (A,2 G,2) ^F,4 | (G,2 A,2) (G,2 ^F,2) | [C,E,]3 [C,C] [D,A,]2 [D,A,]2 | %15
 [G,,B,]8 :: E,2 F,2 G,4 | [D,,A,]2 [G,,G,]2 [A,,F,]2 [B,,D,]2 | G,3 F, [G,,E,]2 [^F,,D,]2 | %19
 G,6 [B,,F,]2 | [C,E,]2 [D,F,]2 [E,G,]2 [F,A,]2 | [G,B,]2 [A,C]2 [B,D]2 [A,C]2 | %22
 [G,B,]2 A,2 A,G, [G,,F,]2 | F,2 D,2 E,4 |] [E,B,]4 [A,,A,]3 [A,,A,] | A,4 (G,2 ^F,2) | %26
 [C,E,]3 [B,,^D,] E,2 [C,E,]2 | [B,,^F,]4 [E,G,]4 | (A,2 G,2) ^F,4 | (G,2 A,2) (G,2 ^F,2) | %30
 [C,E,]3 [C,C] [D,A,]2 [D,A,]2 | [G,,B,]8 :| %32
V:6
|: C,,6 E,,2 | x8 | C,2 A,,2 x4 | G,,4 A,,2 x2 | x8 | x8 | x2 F,E, D,2 x2 | C,8 | x8 | %9
 (D,2 C,2) B,,4 | x4 E,2 x2 | x8 | A,,4 (D,2 C,2) | B,,4 B,,4 | x8 | x8 :: C,,6 E,,2 | x8 | %18
 C,2 A,,2 x4 | G,,4 A,,2 x2 | x8 | x8 | x2 F,E, D,2 x2 | C,8 |] x8 | (D,2 C,2) B,,4 | x4 E,2 x2 | %27
 x8 | A,,4 (D,2 C,2) | B,,4 B,,4 | x8 | x8 :| %32

